X:1
T:Bring unto the Lord, O ye mighty
T:William Knapp
T:p39, New Church Melody, 2nd ed., London: 1754
T:This edition by Edmund Gooch released into the public domain, November 2010. As such, it may be freely copied and performed.
T:Bring unto the Lord, O ye mighty
T:An Anthem Psalm 29th. A 4 Voc.
C:William Knapp
Z:p39, New Church Melody,
Z:2nd ed., London: 1754
%%score [ 1 2 3 4 ]
L:1/8
M:2/2
K:C
V:1 treble nm="Treble" snm="Tr."
V:2 treble nm="Countertenor" snm="Ct."
V:3 treble-8 transpose=-12 nm="Tenor" snm="T."
V:4 bass nm="Bass" snm="B."
V:1
 z8 | z8 | z8 | z8 | z8 | z8 | z8 | z8 | z8 | z8 | z6 |:"^Chorus" d2 | e4 d4 | c4 A4 | B6 B2 | %15
w: |||||||||||A-|scribe un-|to the|Lord, a-|
 c4 B4 | A4 d4 | B8 | A3 B ^G4 | A8 | e2 d2 c2 B2 | c3 d c2 G2 | A6 A2 | B8 | (A3 B) c2 d2 | %25
w: scribe un-|to the|Lord|wor- ship and|strength:|give the Lord the|ho- nour due un-|to his|name.|Wor- * ship the|
 e6 e2 | (d3 e de) f2 | e4 c4 | (A3 B) c2 d2 | e6 e2 | (d3 e de) f2 | e4 c4 ||1 z8 | z8 | z8 | z8 | %36
w: Lord with|ho- * * * ly|wor- ship,|wor- * ship the|Lord with|ho- * * * ly|wor- ship.|||||
 z8 | z8 | z8 | z8 | z8 | z8 | z8 | z8 | z6 :|2 z8 | z8 | z8 | z8 | z8 | z8 | z8 | z8 | z8 | z8 | %55
w: |||||||||||||||||||
 z8 | z8 | z8 | z8 | z8 | z8 | z8 | z6 :|3[M:3/2] z12 || z12 | z12 | z12 | z12 | z12 | z12 | z12 | %71
w: ||||||||||||||||
 z12 | z12 | z12 | z12 | z12 | z12 | z12 | z12 | z12 | z12 | z12 | z12 | z12 | z12 | z12 | z8 || %87
w: ||||||||||||||||
"^Chorus" e2 e2 | d4 B4 d4 | B6 A2 G4 | c8 e4 | d6 c2 B4 | G8 c4 | B6 A2 G4 | c6 d2 e4 | %95
w: In his|tem- ple doth|ev- ’ry man|speak, doth|ev- ’ry man|speak, doth|ev- ’ry man,|ev- ’ry man|
 d6 c2 (B2 A2) | B4 G4 z4 | z4 z4 c4 | c6 d2 (B3 A) | A4 A4 |: G4 | F8 A4 | G8 B4 | c6 d2 e4 | %104
w: speak of his _|ho- nour,|doth|speak of his _|ho- nour,|doth|speak, doth|speak, doth|ev- ’ry man|
 d6 c2 d4 |1 e4 c4 :|2 e4 c8 || z12 | z12 | z12 | z12 | z12 | z12 | z8 |: z4 | z12 | z12 | z12 | %118
w: speak of his|ho- nour.|ho- nour.||||||||||||
 z12 | z12 | z12 | z12 | z8 :|"^Chorus" G4 | c4 c4 (c2 d2) | e8 c4 | A4 A4 A4 | G8 B4 | %128
w: |||||The|Lord shall give _|strength, the|Lord shall give|strength, give|
 (c4 d4) e4 | d8 d4 | e4 e4 |: B4 | c4 c4 c2 d2 | e4 c4 G4 | A4 c4 A4 | B8 c4 | d4 B4 d4 | %137
w: strength _ un-|to his|peo- ple:|the|Lord shall give his|peo- ple the|bles- sing of|peace, the|bles- sing, the|
 e4 c4 B4 | G8 A4 | d4 B4 z4 | z4 z4 d4 | e4 e4 e2 d2 | c4 c4 F4 | G4 G4 G4 | G6 G2 G4 |1 G8 :|2 %146
w: bles- sing of|peace, the|bles- sing,|the|Lord shall give his|peo- ple the|bles- sing, the|bles- sing of|peace.|
 G12 || (G>AGG c4 B4) | c8 d3 d | d4 B4 (e3 d) | c8 c3 B | A4 A4 d4 | e8 d4 | G8 G3 G | %154
w: peace.|A- * * * * *|men, hal- le-|lu- jah, a- *|men, hal- le-|lu- jah, a-|men, a-|men, ha- le-|
 G4 G4 d3 d | d4 d4 d3 d | e4 c4 (G4 | A>BAB c4 B4) | c8 B4 | c12 ||[M:2/2]"^Quick" c2 c2 d2 B2 | %161
w: lu- jah, hal- le-|lu- jah, hal- le-|lu- jah, a-||men, a-|men.|Hal- le- lu- jah,|
 c2 A2 B2 G2 | e3 d c2 c2 | d3 c B2 G2 | c2 c2 B2 d2 | c3 c d2 B2 | c2 c2 A2 A2 | G3 G G2 G2 | %168
w: hal- le- lu- jah,|hal- le- lu- jah,|hal- le- lu- jah,|hal- le- lu- jah,|hal- le- lu- jah,|hal- le- lu- jah,|hal- le- lu- jah.|
[M:4/4]"^Slow"[Q:1/4=60] (c4 B4 | A4 G4 | A2 B2) c4 | (d2 c2 B4) | c8 |] %173
w: Hal- *||* * le-|lu- * *|jah.|
V:2
 z8 | z8 | z8 | z8 | z8 | z8 | z8 | z8 | z8 | z8 | z6 |: G2 | G4 G4 | E4 A4 | G6 G2 | G4 G4 | %16
w: |||||||||||A-|scribe un-|to the|Lord, a-|scribe un-|
 E4 A4 | ^G8 | F3 F E4 | E8 | G2 G2 A2 (BA) | G3 G G2 G2 | (F3 G A2) A2 | ^G8 | E4 E2 F2 | G6 G2 | %26
w: to the|Lord|wor- ship and|strength:|give the Lord the _|ho- nour due un-|to _ _ his|name.|Wor- ship the|Lord with|
 G6 G2 | G4 E4 | E4 E2 F2 | G6 G2 | G6 G2 | G4 E4 ||1 z8 | z8 | z8 | z8 | z8 | z8 | z8 | z8 | z8 | %41
w: ho- ly|wor- ship,|wor- ship the|Lord with|ho- ly|wor- ship.||||||||||
 z8 | z8 | z8 | z6 :|2"^Verse Counter" C4 C2 D2 | E4 (D2 C2) | G4 G2 G2 | G4 z2 E2 | F4 (FE)(DC) | %50
w: ||||It is the|Lord that _|ru- leth the|sea, the|voice of _ the _|
 G6 G2 | A4 A2 A2 | G6 F2 | E4 E2 E2 | F4 (FE)(DC) | G4 G2 A2 | (E3 D C3 D | EDEF G3) A | %58
w: Lord is|migh- ty in|o- pe-|ra- tion: the|voice of _ the _|Lord is a|glo- * * *|* * * * * rious|
 G4 z2 G2 | A4 G2 F2 | (E2 F2) G2 A2 | TD6 D2 | C6 :|3[M:3/2] z12 || z12 | z12 | z12 | z12 | z12 | %69
w: voice, the|voice of the|Lord _ is a|glo- rious|voice.|||||||
 z12 | z12 | z12 | z12 | z12 | z12 | z12 | z4 z4"^Verse Counter" G4 | E6 D2 C4 | G12 | %79
w: |||||||the|voice of the|Lord|
 (A3 G F3 G A_BAB | G4) G4 ^F4 | G3 G G4 z4 | z12 | z12 | z12 | z12 | z8 || G2 G2 | G4 G4 z4 | %89
w: sha- * * * * * * *|* keth the|wil- der- ness:||||||In his|tem- ple|
 z4 z4 G4 | E6 D2 C4 | G12- | G12- | G8 G4 | E6 D2 C4 | D6 D2 D4 | D4 D4 G4 | G6 F2 E4 | F6 F2 E4 | %99
w: doth|ev- ’ry man|speak,|_|* doth|ev- ’ry man|speak of his|ho- nour, doth|ev- ’ry man|speak of his|
 E4 E4 |: E4 | C8 ^F4 | G8 G4 | G6 G2 G4 | G6 G2 G4 |1 E4 E4 :|2 E4 E8 || %107
w: ho- nour,|doth|speak, doth|speak, doth|ev- ’ry man|speak of his|ho- nour.|ho- nour.|
"^Verse Counter and Bass" z4 z4 C4 | (E4 D4) C4 | G4 F4 (E2 F2) | G8 G4 | E4 E2 E2 A3 G | %112
w: The|Lord _ he|sit- teth, the _|Lord he|sit- teth a- bove the|
 ^F6 E2 D3 D | G8 |: z4 | z4 z4 E2 E2 | (F6 G2) A4 | D4 D4 G4 | E4 C4 E4 | G8 G4 | %120
w: wa- ter, wa- ter-|flood:||and the|Lord _ re-|main- eth, re-|main- eth a|king, a|
 (A3 _B A2 G2 F2 E2 | D4 G4) F4 | E4 C4 :| E4 | G4 G4 G4 | A8 E4 | F4 F4 (F2 E2) | D8 D4 | %128
w: king _ _ _ _ _|_ _ for|ev- er.|The|Lord shall give|strength, the|Lord shall give _|strength, give|
 (E4 F4) G4 | G8 G4 | G4 G4 |: G4 | G4 G4 G2 G2 | A4 A4 _B4 | A4 A4 A4 | ^G8 =G4 | G4 G4 G2 F2 | %137
w: strength _ un-|to his|peo- ple:|the|Lord shall give his|peo- ple the|bles- sing of|peace, the|Lord shall give his|
 E4 E4 D4 | G4 G4 ^F4 | G8 G4 | A4 F4 G4 | G4 G4 G4 | E4 A4 A2 A2 | G4 G4 E4 | D6 D2 D4 |1 E8 :|2 %146
w: peo- ple the|bles- sing of|peace, the|bles- sing, the|bles- sing, the|Lord shall give his|peo- ple the|bles- sing of|peace.|
 E12 || (E>FED C4 D4 | E>FEF G4 ^F4) | G8 (E4 | F>GFG A4 G4) | C8 G3 F | E4 E4 B,4 | C8 (G3 F | %154
w: peace.|A- * * * * *||men, a-||men, hal- le-|lu- jah, a-|men, a- *|
 E>FEF G4 ^F4) | G8 G3 F | E4 E4 E4 | A8 D4 | G8 F4 | E12 ||[M:2/2] G2 G2 G2 F2 | E3 F G2 D2 | %162
w: |men, hal- le-|lu- jah, a-|men, a-|men, a-|men.|Hal- le- lu- jah,|hal- le- lu- jah,|
 G3 F E2 E2 | D3 D D2 D2 | G2 A2 D2 G2 | E3 F G2 D2 | (EF) G2 A2 F2 | G3 F E2 E2 |[M:4/4] (A4 G4 | %169
w: hal- le- lu- jah,|hal- le- lu- jah,|hal- le- lu- jah,|hal- le- lu- jah,|hal- * le- lu- jah,|hal- le- lu- jah.|Hal- *|
 F4) (G3 E) | (A8 | G8) | E8 |] %173
w: * le- *|lu-||jah.|
V:3
"^Tenor Solus" c4 G4 | c4 d4 | e8 | f4 (e2 d2) | e4 e4 | c4 G4 | c8 | f4 e4 | (d2 ed c2) B2 | %9
w: Bring un-|to the|Lord,|O ye _|migh- ty;|bring young|rams,|bring young|rams _ _ _ un-|
 A6 A2 | G6 |: B2 | c4 B4 | A4 d4 | B6 d2 | e4 d4 | c4 f4 | (e6 d2) | c3 d (B3 A) | A8 | %20
w: to the|Lord.|A-|scribe un-|to the|Lord, a-|scribe un-|to the|Lord _|wor- ship and _|strength:|
 c2 G2 c2 d2 | e3 d e2 e2 | d6 d2 | e8 | c4 G2 G2 | c4 e4 | (d2 c2 d2) B2 | c4 c4 | c4 G2 G2 | %29
w: give the Lord the|ho- nour due un-|to his|name.|Wor- ship the|Lord with|ho- * * ly|wor- ship,|wor- ship the|
 c4 e4 | (d2 c2 d2) B2 | c4 c4 ||1 z8 | z8 | z8 | z8 | z8 | z8 | z8 | z8 | z8 | z8 | z8 | z8 | %44
w: Lord with|ho- * * ly|wor- ship.|||||||||||||
 z6 :|2 z8 | z8 | z8 | z8 | z8 | z8 | z8 | z8 | z8 | z8 | z8 | z8 | z8 | z8 | z8 | z8 | z8 | z6 :|3 %63
w: |||||||||||||||||||
[M:3/2] z12 || z12 | z12 | z12 | z12 | z12 | z12 | z12 | z12 | z12 | z12 | z12 | z12 | z12 | z12 | %78
w: |||||||||||||||
 z12 | z12 | z12 | z12 | z12 | z12 | z12 | z12 | z8 || c2 c2 | B4 G4 z4 | z12 | z4 z4 c4 | %91
w: |||||||||In his|tem- ple||doth|
 B6 A2 G4 | c8 e4 | d6 c2 B4 | c6 B2 A4 | G6 A2 ^F4 | G4 G4 B4 | c6 d2 e4 | A6 B2 ^G4 | A4 A4 |: %100
w: ev- ’ry man|speak, doth|ev- ’ry man,|ev- ’ry man|speak of his|ho- nour, doth|ev- ’ry man|speak of his|ho- nour,|
 c4 | A8 d4 | B8 G4 | c6 B2 c4 | d6 e2 B4 |1 c4 c4 :|2 c4 c8 || z12 | z12 | z12 | z12 | z12 | z12 | %113
w: doth|speak, doth|speak, doth|ev- ’ry man|speak of his|ho- nour.|ho- nour.|||||||
 z8 |: z4 | z12 | z12 | z12 | z12 | z12 | z12 | z12 | z8 :| c4 | e4 e4 (e2 d2) | c8 c4 | %126
w: ||||||||||The|Lord shall give _|strength, the|
 d4 d4 (d2 c2) | B8 G4 | (G4 A2 B2) c4 | (d4 c4) B4 | c4 c4 |: d4 | e4 e4 e2 d2 | c4 c4 (d2 e2) | %134
w: Lord shall give _|strength, give|strength _ _ un-|to _ his|peo- ple:|the|Lord shall give his|peo- ple the _|
 f4 e4 d4 | e8 (e3 d) | B4 G4 B4 | c8 d4 | e4 e4 d2 c2 | B4 G4 c4 | c4 d4 B4 | c8 c4 | %142
w: bles- sing of|peace, the _|bles- sing of|peace, the|Lord shall give his|peo- ple the|bles- sing of|peace, the|
 e4 e4 d2 c2 | B4 G4 c4 | c6 d2 B4 |1 c8 :|2 c12 || (c>dcd e4 d4) | G8 A3 A | B4 G4 G4 | A8 G3 G | %151
w: Lord shall give his|peo- ple the|bles- sing of|peace.|peace.|A- * * * * *|men, hal- le-|lu- jah, a-|men, hal- le-|
 c4 c4 B4 | c8 d4 | e8 d3 d | c4 c4 (A4 | B>cBc d4 B4) | c8 e3 d | c4 c4 d4 | e4 Td8 | c12 || %160
w: lu- jah, a-|men, a-|men, hal- le-|lu- jah, a-||men, hal- le-|lu- jah, a-|men, a-|men.|
[M:2/2] e2 e2 d2 d2 | c2 c2 d2 B2 | c3 d (ed)(cB) | A3 G G2 G2 | e2 e2 d2 B2 | c2 A2 B2 G2 | %166
w: Hal- le- lu- jah,|hal- le- lu- jah,|hal- le- lu- * jah, _|hal- le- lu- jah,|hal- le- lu- jah,|hal- le- lu- jah,|
 e2 e2 c2 d2 | c3 B c2 c2 |[M:4/4] (c4 G4 | A2 B2) c4 | (f4 e4 | d8) | c8 |] %173
w: hal- le- lu- jah,|hal- le- lu- jah.|Hal- *|* * le-|lu- *||jah.|
V:4
 z8 | z8 | z8 | z8 | z8 | z8 | z8 | z8 | z8 | z8 | z6 |: G,2 | E,4 G,4 | A,4 ^F,4 | G,6 G,2 | %15
w: |||||||||||A-|scribe un-|to the|Lord, a-|
 C4 G,4 | A,4 D,4 | E,8 | F,3 D, E,4 | [A,,A,]8 | C2 B,2 A,2 G,2 | C3 B, C2 E,2 | F,6 F,2 | E,8 | %24
w: scribe un-|to the|Lord|wor- ship and|strength:|give the Lord the|ho- nour due un-|to his|name.|
 A,4 G,2 F,2 | E,4 C,4 | G,6 G,,2 | C,4 C,4 | A,4 G,2 F,2 | E,4 C,4 | G,6 G,,2 | C,4 C,4 ||1 %32
w: Wor- ship the|Lord with|ho- ly|wor- ship,|wor- ship the|Lord with|ho- ly|wor- ship.|
"^Verse Bass" C,4 C,2 D,2 | E,4 D,2 C,2 | G,4 G,2 F,2 | E,4 C,4 | G,4 G,2 A,2 | B,4 A,2 G,2 | %38
w: It is the|Lord that com-|mand- eth the|wa- ters,|it is the|Lord that com-|
 D4 D2 C2 | B,4 G,4 | G,4 G,2 G,2 | (C2 DC B,2 CB, | A,2) A,2 G,2 G,2 | D,4 D,2 D,2 | G,4 G,2 :|2 %45
w: mand- eth the|wa- ters:|it is the|glo- * * * * *|* rious God that|ma- keth the|thun- der.|
 z8 | z8 | z8 | z8 | z8 | z8 | z8 | z8 | z8 | z8 | z8 | z8 | z8 | z8 | z8 | z8 | z8 | z6 :|3 %63
w: ||||||||||||||||||
[M:3/2] z4 z4"^Verse Bass" C,4 || E,6 D,2 C,4 | G,8 G,4 | A,6 G,2 (A,2 B,2) | C8 E,4 | %68
w: The|voice of the|Lord, the|voice of the _|Lord di-|
 (F,3 E, D,4 G,3 F, | E,3 D, C,3 D, E,D,E,F, | G,4) G,4 G,4 | (A,3 G, F,3 E, C3 B, | %72
w: vi- * * * *||* deth, di-|vi- * * * * *|
 A,3 G, F,3 G, A,G,A,B, | C4) C4 C4 | (D3 C B,3 A, G,A,G,A, | B,4) (A,6 G,2) | G,8 z4 | z12 | z12 | %79
w: |* deth the|flames _ _ _ _ _ _ _|_ of _|fire;|||
 z12 | z12 | z4 z4"^Verse Bass" G,3 G, | C12 | (C3 B, A,3 G, A,_B,A,B, | C4) C4 (E,2 F,2) | %85
w: ||yea, the|Lord|sha- * * * * * * *|* keth the _|
 G,3 G, G,4 G,,4 | C,4 C,4 || C,2 C,2 | G,4 G,4 z4 | z12 | z12 | z4 z4 G,4 | E,6 D,2 C,4 | %93
w: wil- der- ness of|Ca- des.|In his|tem- ple|||doth|ev- ’ry man|
 G,8 G,4 | A,6 B,2 (C2 A,2) | D6 D2 D,4 | G,4 G,4 G,4 | E,6 D,2 C,4 | F,6 D,2 E,4 | A,,4 A,,4 |: %100
w: speak, doth|ev- ’ry man _|speak of his|ho- nour, doth|ev- ’ry man|speak of his|ho- nour,|
 E,4 | F,8 D,4 | G,8 G,4 | E,6 D,2 C,4 | G,6 G,2 G,,4 |1 C,4 C,4 :|2 C,4 C,8 || z12 | z4 z4 C,4 | %109
w: doth|speak, doth|speak, doth|ev- ’ry man|speak of his|ho- nour.|ho- nour.||The|
 (E,4 D,4) C,4 | G,4 G,4 (A,2 B,2) | C4 C4 A,4 | D3 C B,6 A,2 | G,8 |: E,2 E,2 | (F,6 G,2) A,4 | %116
w: Lord _ he|sit- teth, he _|sit- teth a-|bove the wa- ter-|flood:|and the|Lord _ re-|
 D,4 D,4 C,4 | G,8 G,4 | A,8 C4 | B,4 G,4 E,4 | (F,3 G, F,2 G,2 A,2 F,2 | G,8) G,,4 | C,4 C,4 :| %123
w: main- eth a|king, the|Lord re-|main- eth a|king _ _ _ _ _|_ for|ev- er.|
 C,4 | C4 C4 (C2 B,2) | A,8 A,4 | D,4 D,4 F,4 | G,8 G,4 | (E,4 D,4) C,4 | G,8 G,,4 | C,4 C,4 |: %131
w: The|Lord shall give _|strength, the|Lord shall give|strength, give|strength _ un-|to his|peo- ple:|
 G,4 | C4 C4 C2 B,2 | A,4 A,4 G,4 | F,4 F,4 F,4 | E,8 C,4 | G,4 G,4 G,4 | A,4 A,4 B,4 | C4 C4 D4 | %139
w: the|Lord shall give his|peo- ple the|bles- sing of|peace, the|bles- sing, the|bles- sing, the|bles- sing of|
 G,8 E,4 | F,4 D,4 G,2 F,2 | E,4 C,4 C,4 | C4 A,4 D,2 D,2 | G,4 E,4 C,4 | G,,6 G,,2 G,,4 |1 C,8 :|2 %146
w: peace, the|Lord shall give his|peo- ple, the|Lord shall give his|peo- ple the|bles- sing of|peace.|
 C,12 || (C,8 G,,4 | C,>D,C,D, E,4 D,4) | G,,8 C,3 C, | F,4 F,4 (E,4 | F,>G,F,G, A,4 G,4) | %152
w: peace.|A- *||men, hal- le-|lu- jah, a-||
 C,8 G,,3 G,, | C,4 C,4 (G,4 | C>DCD E4 D4) | G,8 G,3 G, | A,4 A,4 (E,4 | F,>G,F,G, A,4 G,4) | %158
w: men, hal- le-|lu- jah, a-||men, hal- le-|lu- jah, a-||
 C,8 G,,4 | C,12 ||[M:2/2] C2 C2 B,2 B,2 | A,2 A,2 G,2 G,2 | C,3 B,, C,2 C,2 | D,2 D,2 G,,2 G,,2 | %164
w: men, a-|men.|Hal- le- lu- jah,|hal- le- lu- jah,|hal- le- lu- jah,|hal- le- lu- jah,|
 C2 A,2 B,2 G,2 | A,2 D,2 G,2 G,2 | %166
w: hal- le- lu- jah,|hal- le- lu- jah,|
"^Emendations: Original clefs treble, alto, treble, bass. The first and second time bar markings over bars 33-45 and46-63 are used to indicate the repeating of the chorus (bars 12-32), marked in the source with the textual note’Sing the Chorus again Ascribe unto the Lord &c.‘. The natural accidental on the G on beat 3 of bar 136 in the alto partis an editorial addition: in the source, this note has no accidental." A,2 E,2 F,2 D,2 | %167
w: hal- le- lu- jah,|
 G,2 G,,2 C,2 C,2 |[M:4/4] (A,4 E,4 | F,4) E,4 | (D,4 C,4 | [G,,G,]8) | C,8 |] %173
w: hal- le- lu- jah.|Hal- *|* le-|lu- *||jah.|

